X:55
T:Farandole de Frjus
T:Farandole de Saint Cassien
O:France
A:Provence
C:Trad.
R:Farandole
M:6/8
Q:3/8=90
K:Fmajor
A3 A3|c3-cBA|GAB cde|fed c3|A3 A3|c3- cBA|GAB cde|[1 f3-f zz:|[2 f3-fzc|:
cAc cAc|d2d d3|e2e ede|fed !breath!c2c|cAc cAc|d2d  d3|e2e ede|[1 f3-f zc :|[2 f2-fzz|]
%%footer $D   Galouvielle-MBe 2005 \nFarandole France
